public/icons/arrowRightIcon.svg

<svg width="24" height="24" viewBox="0 0 24 24" fill="none" xmlns="http://www.w3.org/2000/svg">
<path d="M14.5536 5.10721C14.4835 5.03757 14.4278 4.95474 14.3898 4.86351C14.3517 4.77211 14.3321 4.67409 14.3321 4.57508C14.3321 4.47607 14.3517 4.37804 14.3898 4.28665C14.4279 4.19525 14.4837 4.1123 14.554 4.04258L14.554 4.04257L14.555 4.04154C14.6952 3.90412 14.8837 3.82715 15.08 3.82715C15.2763 3.82715 15.4648 3.90412 15.605 4.04154L15.605 4.04153L15.6067 4.04318L23.0367 11.4632L23.0367 11.4631L23.0412 11.4679C23.1432 11.5751 23.2116 11.7098 23.238 11.8554C23.2645 12.001 23.2479 12.1512 23.1903 12.2875L23.1905 12.2876L23.1858 12.2973C23.1548 12.3628 23.1143 12.4234 23.0658 12.4773L23.0661 12.4775L23.0569 12.4867L15.6369 19.9167L15.637 19.9168L15.6316 19.9219C15.4905 20.055 15.3039 20.1291 15.11 20.1291C14.9161 20.1291 14.7295 20.055 14.5884 19.9219L14.5884 19.922L14.584 19.9176C14.5137 19.8479 14.4579 19.7649 14.4198 19.6735C14.3817 19.5821 14.3621 19.4841 14.3621 19.3851C14.3621 19.2861 14.3817 19.188 14.4198 19.0966C14.4578 19.0054 14.5135 18.9226 14.5836 18.853C14.5837 18.8528 14.5838 18.8527 14.584 18.8526L20.6865 12.7501H1.50001C1.3011 12.7501 1.11033 12.6711 0.969681 12.5304C0.829025 12.3898 0.75001 12.199 0.75001 12.0001C0.75001 11.8012 0.829025 11.6104 0.969681 11.4697C1.11033 11.3291 1.3011 11.2501 1.50001 11.2501H20.6965L14.554 5.10758C14.5538 5.10746 14.5537 5.10734 14.5536 5.10721Z" fill="#F0B270" stroke="#F0B270" stroke-width="0.5"/>
</svg>

<svg width="24" height="24" fill="none" xmlns="http://www.w3.org/2000/svg"><path d="M14.554 5.107a.75.75 0 0 1 0-1.064l.001-.001a.75.75 0 0 1 1.05 0l.002.001 7.43 7.42.004.005a.758.758 0 0 1 .15.82l-.005.01a.747.747 0 0 1-.12.18l-.01.009-7.42 7.43h.001l-.005.005a.76.76 0 0 1-1.044 0l-.004-.004a.75.75 0 0 1 0-1.065l6.102-6.103H1.5a.75.75 0 1 1 0-1.5h19.197l-6.143-6.142Z" fill="#F0B270" stroke="#F0B270" stroke-width=".5"/></svg>
